X: 40660
T: Top Of The Maol, The
R: polka
M: 2/4
K: Adorian
|:AE|A2 AB/d/|ed Bd|G2 GA|Bd B/A/G|
A2 AB/d/|ed Bd|e/f/g/e dB|A2:|
|:Bd|ea ag/a/|ba ge|ef ga|ge ed|
ea ag/a/|ba gd|e/f/g/e/ dB|A2:|

